src/assets/storeDetailImg.svg

<svg width="72" height="72" viewBox="0 0 72 72" fill="none" xmlns="http://www.w3.org/2000/svg">
<circle cx="36" cy="36" r="35.5" fill="white" stroke="#DDDDDD"/>
<path d="M19.4785 18.5H23.0869C24.7806 18.5 26.2729 19.5975 26.8105 21.1973L26.9053 21.5234V21.5244L27.541 24.1191L27.6338 24.5H53.4912C53.5503 24.5 53.6193 24.5087 53.7012 24.5225C54.1892 24.6174 54.5327 25.076 54.4922 25.5791L54.4785 25.6807V25.6816L51.5215 42.1787C51.4326 42.6598 51.0194 42.9999 50.5342 43H29.9844L29.9062 43.0264L28.0576 43.6562C27.1168 43.9747 26.4594 44.836 26.3809 45.8213L26.373 46.0059C26.3362 47.299 27.3162 48.4225 28.6182 48.499L28.9893 48.5205L29.1172 48.1719C29.4868 47.1597 30.2611 46.3353 31.2295 45.9082L31.4258 45.8281L31.4277 45.8271C33.4546 45.058 35.7257 46.1034 36.4893 48.1729L36.6104 48.5H43.7773L43.8936 48.1631C44.2629 47.0892 45.0709 46.2378 46.0889 45.8066L46.2959 45.7256C48.2731 45.0188 50.4538 46.0165 51.2461 47.9717L51.3184 48.1641C52.0436 50.2506 50.9589 52.5438 48.916 53.2744C46.875 54.0041 44.6171 52.9173 43.8936 50.8359L43.7764 50.5H36.6084L36.4883 50.8291C36.1036 51.8862 35.3277 52.7218 34.3291 53.1494L34.126 53.2295L34.125 53.2305C32.0984 53.9731 29.8388 52.9146 29.0879 50.8301L28.9736 50.5117L28.6348 50.5L28.416 50.4873C26.2389 50.3015 24.517 48.4792 24.4199 46.2471L24.415 46.0225V46.0195C24.4152 44.2067 25.4937 42.5884 27.1035 41.8945L27.4326 41.7686L27.4346 41.7676L28.3076 41.4678L28.7129 41.3281L28.6367 40.9062L25.8857 25.7256L25.8838 25.7129L25.8809 25.6992L25.0078 22.0244V22.0225L24.9609 21.8574C24.6925 21.0495 23.9434 20.5 23.0869 20.5H19.4785C18.9481 20.4998 18.5 20.0555 18.5 19.5C18.5 18.9445 18.9481 18.5002 19.4785 18.5ZM32.7881 47.5C31.692 47.5 30.8096 48.4056 30.8096 49.5C30.8096 50.5944 31.692 51.5 32.7881 51.5C33.8843 51.5 34.7666 50.5944 34.7666 49.5C34.7666 48.4056 33.8843 47.5 32.7881 47.5ZM47.5762 47.5C46.4801 47.5001 45.5977 48.4056 45.5977 49.5C45.5977 50.5944 46.4801 51.4999 47.5762 51.5C48.6723 51.5 49.5547 50.5944 49.5547 49.5C49.5547 48.4056 48.6723 47.5 47.5762 47.5ZM28.1553 27.0879L30.5654 40.5879L30.6396 41H49.71L49.7842 40.5889L52.209 27.0889L52.3145 26.5H28.0508L28.1553 27.0879ZM34.2666 29C34.7971 29 35.2461 29.4444 35.2461 30V36C35.2461 36.5556 34.7971 37 34.2666 37C33.7362 36.9998 33.2881 36.5555 33.2881 36V30C33.2881 29.4445 33.7362 29.0002 34.2666 29ZM40.1826 29C40.713 29.0002 41.1611 29.4445 41.1611 30V36C41.1611 36.5555 40.713 36.9998 40.1826 37C39.6521 37 39.2031 36.5556 39.2031 36V30C39.2031 29.4444 39.6521 29 40.1826 29ZM46.0977 29C46.6281 29.0001 47.0762 29.4445 47.0762 30V36C47.0762 36.5555 46.6281 36.9999 46.0977 37C45.5671 37 45.1191 36.5556 45.1191 36V30C45.1191 29.4444 45.5671 29 46.0977 29Z" fill="#F6AE24" stroke="#F6AE24"/>
</svg>

<svg xmlns="http://www.w3.org/2000/svg" width="72" height="72" fill="none"><circle cx="36" cy="36" r="35.5" fill="#fff" stroke="#DDD"/><path fill="#F6AE24" stroke="#F6AE24" d="M19.479 18.5h3.608a3.94 3.94 0 0 1 3.724 2.697l.094.326v.001l.636 2.595.093.381H53.49q.089.001.21.023a.995.995 0 0 1 .791 1.056l-.014.102-2.956 16.498a1 1 0 0 1-.988.821h-20.55l-.078.026-1.848.63a2.5 2.5 0 0 0-1.677 2.165l-.008.185c-.037 1.293.943 2.416 2.245 2.493l.371.021.128-.348a3.98 3.98 0 0 1 2.113-2.264l.196-.08h.002c2.027-.77 4.298.275 5.061 2.345l.121.327h7.167l.117-.337a3.96 3.96 0 0 1 2.195-2.356l.207-.081c1.977-.707 4.158.29 4.95 2.246l.072.192c.726 2.087-.36 4.38-2.402 5.11-2.041.73-4.299-.357-5.022-2.438l-.118-.336h-7.168l-.12.33c-.384 1.056-1.16 1.892-2.159 2.32l-.203.08h-.001c-2.027.743-4.286-.315-5.037-2.4l-.114-.318-.34-.012-.218-.013c-2.177-.186-3.899-2.008-3.996-4.24l-.005-.224v-.004c0-1.812 1.079-3.43 2.689-4.124l.329-.126.002-.001.873-.3.405-.14-.076-.422-2.751-15.18-.002-.013-.003-.014-.873-3.675v-.002l-.047-.165a1.97 1.97 0 0 0-1.874-1.357h-3.608a.994.994 0 0 1-.979-1c0-.555.448-1 .979-1Zm13.31 29c-1.097 0-1.98.906-1.98 2s.883 2 1.98 2c1.095 0 1.978-.906 1.978-2s-.883-2-1.979-2Zm14.787 0c-1.096 0-1.978.906-1.978 2s.882 2 1.978 2 1.979-.906 1.979-2-.883-2-1.979-2Zm-19.42-20.412 2.41 13.5.074.412h19.07l.074-.411 2.425-13.5.105-.589H28.052zM34.265 29c.531 0 .98.444.98 1v6c0 .556-.449 1-.98 1a.994.994 0 0 1-.978-1v-6c0-.555.448-1 .979-1Zm5.917 0c.53 0 .978.445.978 1v6c0 .556-.448 1-.978 1a.995.995 0 0 1-.98-1v-6c0-.556.45-1 .98-1Zm5.915 0c.53 0 .978.445.978 1v6c0 .556-.448 1-.978 1a.994.994 0 0 1-.979-1v-6c0-.556.448-1 .979-1Z"/></svg>
